svgs/icons/sm/petrol.svg

<svg xmlns="http://www.w3.org/2000/svg" viewBox="0 0 16 16" enable-background="new 0 0 16 16"><path fill="#34363D" d="M13 8v-2.3c0-1.5-1.2-2.7-2.7-2.7h-.3v-1c0-1.1-.9-2-2-2h-4c-1.1 0-2 .9-2 2v14h8v-8h1v4.3c0 .4.3.7.7.7h1.6c.4 0 .7-.3.7-.7v-3.3l-1-1zm-5-2h-4v-4h4v4zm5 6h-1v-3h.6l.4.4v2.6z"/></svg>

<svg xmlns="http://www.w3.org/2000/svg" viewBox="0 0 16 16"><path fill="#34363D" d="M13 8V5.7C13 4.2 11.8 3 10.3 3H10V2c0-1.1-.9-2-2-2H4C2.9 0 2 .9 2 2v14h8V8h1v4.3c0 .4.3.7.7.7h1.6c.4 0 .7-.3.7-.7V9l-1-1zM8 6H4V2h4v4zm5 6h-1V9h.6l.4.4V12z"/></svg>
